X: 1
T: The Morning Star
R: reel
M: 4/4
L: 1/8
K: Dmaj
~B3 A BGEF|~G2 Bd ef{b}gd|~B3 A BGEF|GB{c}AF ~G3 A:|
(3Bcd ef ~g3 e|~f3 e {a}edBG|(3Bcd ef g2 fg|{c'}afdf ~e3 d|
(3Bcd ef ~g3 e|~f3 e {a}edBG|Bddc d3 e|f ~a3 gfed||


Tune 828	Setting 13980

